X: 40
T: Fors seulement
N: Derived from Ort3004-Fors_seulement.krn
C: Marbrianus de Orto
%%abc-version 2.0
%%abcx-abcm2ps-target-version 5.9.1 (29 Sep 2008)
%%abc-creator hum2abc beta
%%abcx-conversion-date 2019/02/17 07:28:38
%%abc-edited-by Jesse Rodin
%%abc-edited-by Jesse Rodin 8/6/2013
%%abcx-initial-encoding-date 2013/08/06/
%%humdrum-veritas 3541829223
%%humdrum-veritas-data 2812910428
%%linebreak <none>
%%barnumbers 0
L: 1/4
M: 2/1
Q: 1/2=120
%%staves [1 2 3 4]
V: 1 clef=treble
V: 2 clef=treble-8
V: 3 clef=treble-8
V: 4 clef=bass
K: F
[V:1] d8 | 
[V:2] z8 | 
[V:3] z8 | 
[V:4] z8 | 
[V:1] d4d4 | 
[V:2] g4g2g2 | 
[V:3] z8 | 
[V:4] z8 | 
[V:1] d6cB | 
[V:2] g2fed4 | 
[V:3] z8 | 
[V:4] z8 | 
[V:1] A4A4 | 
[V:2] d4f4- | 
[V:3] z8 | 
[V:4] z8 | 
[V:1] c4c4 | 
[V:2] f2_ed_e4 | 
[V:3] z8 | 
[V:4] z8 | 
[V:1] B6AG | 
[V:2] _e3d_e4 | 
[V:3] z8 | 
[V:4] z8 | 
[V:1] B4A4- | 
[V:2] d8 | 
[V:3] z8 | 
[V:4] z8 | 
[V:1] A2G2G4- | 
[V:2] c4B4 | 
[V:3] z8 | 
[V:4] z8 | 
[V:1] G2^FEF4 | 
[V:2] A8 | 
[V:3] z8 | 
[V:4] D,8 | 
[V:1] z8 | 
[V:2] z8 | 
[V:3] A8 | 
[V:4] D,4D,4 | 
[V:1] z8 | 
[V:2] F6G2 | 
[V:3] A4A4 | 
[V:4] D,6C,B,, | 
[V:1] E8- | 
[V:2] A8 | 
[V:3] c6B2 | 
[V:4] A,,4A,,4 | 
[V:1] E4A4 | 
[V:2] z4d3c | 
[V:3] A2G2F4 | 
[V:4] C,4D,4 | 
[V:1] G4c4 | 
[V:2] B2G2A4 | 
[V:3] z2c4A2 | 
[V:4] E,4F,4 | 
[V:1] B6A2 | 
[V:2] G2d3ef2 | 
[V:3] d4B2c2- | 
[V:4] G,6F,2 | 
[V:1] G4c3B | 
[V:2] g4e4 | 
[V:3] c2B2A2G2 | 
[V:4] E,2D,2C,4 | 
[V:1] A2G2^F4 | 
[V:2] e4d3e | 
[V:3] c4A4 | 
[V:4] z4D,4 | 
[V:1] z8 | 
[V:2] fedcB4 | 
[V:3] z2B4AG | 
[V:4] B,,4G,,4 | 
[V:1] z8 | 
[V:2] c8 | 
[V:3] F2G4^F2 | 
[V:4] A,,8 | 
[V:1] D3EFGA2 | 
[V:2] B4A4 | 
[V:3] G2D3EF2 | 
[V:4] G,,4D,4 | 
[V:1] G2c3BA2- | 
[V:2] z2G2A2c2- | 
[V:3] C4z4 | 
[V:4] E,4F,4 | 
[V:1] A2G4^F2 | 
[V:2] cBd4c2 | 
[V:3] z8 | 
[V:4] G,4A,4 | 
[V:1] G4D4- | 
[V:2] d4z4 | 
[V:3] G8 | 
[V:4] B,8- | 
[V:1] D2E2F4 | 
[V:2] f3ed3c | 
[V:3] D8 | 
[V:4] B,4A,4 | 
[V:1] G2B4AG | 
[V:2] B4GABc | 
[V:3] _E8 | 
[V:4] G,6^F,E, | 
[V:1] A4A4 | 
[V:2] d4z2d2- | 
[V:3] D8- | 
[V:4] ^F,8- | 
[V:1] z8 | 
[V:2] d2cBA4 | 
[V:3] D8 | 
[V:4] F,8 | 
[V:1] d6c2 | 
[V:2] GABcd2_e2- | 
[V:3] G8- | 
[V:4] z8 | 
[V:1] B2G2A4 | 
[V:2] e2d4d2 | 
[V:3] G4D4 | 
[V:4] z4F,4 | 
[V:1] G2c3BA2 | 
[V:2] B2_e2c3d | 
[V:3] _E2C2F4 | 
[V:4] G,4A,4 | 
[V:1] G4G4 | 
[V:2] _e3dB3c | 
[V:3] _E4_E4 | 
[V:4] B,6A,G, | 
[V:1] A8- | 
[V:2] d4D4 | 
[V:3] D4z2d2 | 
[V:4] F,8 | 
[V:1] A4c4 | 
[V:2] z8 | 
[V:3] cBAGA4 | 
[V:4] F,4F,4 | 
[V:1] B6AG | 
[V:2] z4B3c | 
[V:3] G4_E4 | 
[V:4] G,8 | 
[V:1] F2G4^F2 | 
[V:2] d8 | 
[V:3] D8 | 
[V:4] A,8 | 
[V:1] G4D4- | 
[V:2] z4f4 | 
[V:3] B4A4- | 
[V:4] G,4F,4 | 
[V:1] D2^C=B,C4 | 
[V:2] g4g4 | 
[V:3] A2GFG4 | 
[V:4] E,8 | 
[V:1] D8 | 
[V:2] f4d4 | 
[V:3] A8 | 
[V:4] D,8 | 
[V:1] G4G4 | 
[V:2] _e4_e4 | 
[V:3] c8 | 
[V:4] z8 | 
[V:1] F6D2 | 
[V:2] d4B4 | 
[V:3] d4d4 | 
[V:4] z8 | 
[V:1] E4c4 | 
[V:2] A3GF4 | 
[V:3] c4A4 | 
[V:4] z8 | 
[V:1] d4d4 | 
[V:2] z2GABcde | 
[V:3] B8 | 
[V:4] z8 | 
[V:1] c4A4 | 
[V:2] f2g4^f2 | 
[V:3] z2_e2c2d2 | 
[V:4] z8 | 
[V:1] B4B4 | 
[V:2] g8 | 
[V:3] G8 | 
[V:4] z8 | 
[V:1] A8 | 
[V:2] z8 | 
[V:3] D4d4- | 
[V:4] F,8 | 
[V:1] G8 | 
[V:2] z8 | 
[V:3] d2c2B4 | 
[V:4] G,4G,4 | 
[V:1] z8 | 
[V:2] z8 | 
[V:3] A6B2- | 
[V:4] F,4D,4 | 
[V:1] z8 | 
[V:2] z8 | 
[V:3] B2c3BAG | 
[V:4] _E,4E,4 | 
[V:1] z8 | 
[V:2] z4d4 | 
[V:3] F4B4- | 
[V:4] D,4B,,4 | 
[V:1] z8 | 
[V:2] _e4_e4 | 
[V:3] B2AGA4 | 
[V:4] C,8 | 
[V:1] d6cB | 
[V:2] d4B4 | 
[V:3] B4z4 | 
[V:4] B,,6A,,G,, | 
[V:1] A2B4A2 | 
[V:2] c4c4 | 
[V:3] z8 | 
[V:4] F,,4z4 | 
[V:1] c3BA3G | 
[V:2] A3Bc2d2- | 
[V:3] z8 | 
[V:4] F,8 | 
[V:1] F8 | 
[V:2] d2cBA2B2- | 
[V:3] z8 | 
[V:4] D,8 | 
[V:1] z8 | 
[V:2] BAGFG4 | 
[V:3] z4D4 | 
[V:4] B,,8 | 
[V:1] z8 | 
[V:2] A6GF | 
[V:3] E4F3G | 
[V:4] A,,6B,,2 | 
[V:1] z8 | 
[V:2] E4D4 | 
[V:3] ABc2B2A2- | 
[V:4] C,2C,2D,4 | 
[V:1] z8 | 
[V:2] z2d3cc2 | 
[V:3] A2G3^F^F2 | 
[V:4] C,2B,,2A,,4 | 
[V:1] D4E2D2 | 
[V:2] B4G4 | 
[V:3] G8 | 
[V:4] z4G,,4- | 
[V:1] G4F2B2- | 
[V:2] GABcd3e | 
[V:3] D8 | 
[V:4] G,,4B,,4- | 
[V:1] B2AGF4 | 
[V:2] f4z2d2 | 
[V:3] z4A4 | 
[V:4] B,,2C,2D,4 | 
[V:1] z4A4 | 
[V:2] g4z2f2 | 
[V:3] G4c4 | 
[V:4] E,4F,4- | 
[V:1] c6BA | 
[V:2] a3fg4 | 
[V:3] c3d_e4- | 
[V:4] F,2E,D,C,4- | 
[V:1] G6A2 | 
[V:2] z8 | 
[V:3] e2d2c3A | 
[V:4] C,2D,2E,2F,2 | 
[V:1] B3cd3c | 
[V:2] z2g3fd2- | 
[V:3] d3cBAG2 | 
[V:4] G,6F,E, | 
[V:1] B2c2A4 | 
[V:2] d2e2c3d | 
[V:3] z4z2A2 | 
[V:4] D,2C,2F,4 | 
[V:1] z4A2c2 | 
[V:2] c2d4e2 | 
[V:3] G2A2F2G2- | 
[V:4] E,2D,4C,2 | 
[V:1] B2A3GB2 | 
[V:2] d2f3ed2- | 
[V:3] G2F4B,2 | 
[V:4] D,8- | 
[V:1] A2G4^F2 | 
[V:2] dcB2A2d2- | 
[V:3] F2G2A4 | 
[V:4] D,8 | 
[V:1] G8- | 
[V:2] d2_e2d4 | 
[V:3] G8- | 
[V:4] G,,8- | 
[V:1] G8 |]  
[V:2] d8 |]  
[V:3] G8 |]  
[V:4] G,,8 |]  



